X: 14
T:Cantiga 353 'Quen a omagen'
M:2/4
L:1/8
Q:300
C:Alfonso X el Sabio
S:Rep. Jose Mª Hernansáez
R:Cantiga
K:F
D2A2 | {d}A3 G | F2 {G}FG | A3 D | {A}D2 A2 | {d}A3 G |
FE D2 | F4 | D2 A2 | {d}A3 G | F2 {G}FG | A3 D | F2 A2 |
{d}A3 G | FE D^C | D4 
||
A2 =B2 | G3 A | =B2 cB | A3 G | A2 {d}AB | A3 G | F2 G2 |
F4 | A2 =B2 | G3 A | =B2 cB | A3 G | A2 {d}AB | A3 G | FE D^C | D4 
:|

